icon-themes/breeze_svg/cmd/sc_connectorlinesarrowend.svg

<svg viewBox="0 0 16 16" xmlns="http://www.w3.org/2000/svg">/&gt;<path d="m3.5 2c-.8284354 0-1.5.6715646-1.5 1.5s.6715646 1.5 1.5 1.5c.6558447 0 1.2024121-.413586 1.40625-1h.09375.71875l3.84375 8.71875.125.28125h.46875 1.84375v.25.75l2-1.5-2-1.5v.75.25h-1.71875l-3.84375-8.71875-.125-.28125h-.4375-.875-.09375c-.2038379-.586414-.7504053-1-1.40625-1zm0 1c.2761424 0 .5.2238576.5.5s-.2238576.5-.5.5-.5-.2238576-.5-.5.2238576-.5.5-.5z" fill="#4d4d4d"/></svg>

<svg xmlns="http://www.w3.org/2000/svg" viewBox="0 0 16 16">
     />
 <path 
     style="fill:#4d4d4d" 
     d="M 3.5 2 C 2.6715646 2 2 2.6715646 2 3.5 C 2 4.3284354 2.6715646 5 3.5 5 C 4.1558447 5 4.7024121 4.586414 4.90625 4 L 5 4 L 5.71875 4 L 9.5625 12.71875 L 9.6875 13 L 10.15625 13 L 12 13 L 12 13.25 L 12 14 L 14 12.5 L 12 11 L 12 11.75 L 12 12 L 10.28125 12 L 6.4375 3.28125 L 6.3125 3 L 5.875 3 L 5 3 L 4.90625 3 C 4.7024121 2.413586 4.1558447 2 3.5 2 z M 3.5 3 C 3.7761424 3 4 3.2238576 4 3.5 C 4 3.7761424 3.7761424 4 3.5 4 C 3.2238576 4 3 3.7761424 3 3.5 C 3 3.2238576 3.2238576 3 3.5 3 z "
     />
 </svg>
